modules/stroke-7/icons/magnet.svg

<?xml version="1.0" encoding="utf-8"?>
<!-- Generated by IcoMoon.io -->
<!DOCTYPE svg PUBLIC "-//W3C//DTD SVG 1.1//EN" "http://www.w3.org/Graphics/SVG/1.1/DTD/svg11.dtd">
<svg version="1.1" xmlns="http://www.w3.org/2000/svg" xmlns:xlink="http://www.w3.org/1999/xlink" width="32" height="32" viewBox="0 0 32 32">
<g id="icomoon-ignore">
</g>
<path d="M21.345 2.672v14.914c0 2.952-2.393 5.345-5.345 5.345-2.953 0-5.345-2.393-5.345-5.345v-14.914h-6.384v14.928c0 6.478 5.251 11.729 11.729 11.729s11.729-5.251 11.729-11.729v-14.928h-6.384zM26.663 3.738v3.199h-4.251v-3.199h4.251zM9.589 3.738v3.199h-4.251v-3.199h4.251zM16 28.262c-5.88 0-10.662-4.783-10.662-10.662v-9.596h4.251v9.583c0 3.535 2.876 6.411 6.411 6.411s6.411-2.876 6.411-6.411v-9.583h4.251v9.596c0 5.88-4.784 10.663-10.663 10.663z" fill="#000000"></path>
</svg>

<svg xmlns="http://www.w3.org/2000/svg" width="32" height="32" viewBox="0 0 32 32"><path d="M21.345 2.672v14.914a5.345 5.345 0 1 1-10.69 0V2.672H4.271V17.6c0 6.478 5.251 11.729 11.729 11.729S27.729 24.078 27.729 17.6V2.672h-6.384zm5.318 1.066v3.199h-4.251V3.738h4.251zm-17.074 0v3.199H5.338V3.738h4.251zM16 28.262c-5.88 0-10.662-4.783-10.662-10.662V8.004h4.251v9.583c0 3.535 2.876 6.411 6.411 6.411s6.411-2.876 6.411-6.411V8.004h4.251V17.6c0 5.88-4.784 10.663-10.663 10.663z"/></svg>
